static/img/kroki/cdd864dc230b4c55bc6ca43fc4ed8b64.svg

<?xml version="1.0" encoding="us-ascii" standalone="no"?><svg xmlns="http://www.w3.org/2000/svg" xmlns:xlink="http://www.w3.org/1999/xlink" contentStyleType="text/css" height="252px" preserveAspectRatio="none" style="width:474px;height:252px;" version="1.1" viewBox="0 0 474 252" width="474px" zoomAndPan="magnify"><defs/><g><!--class aws_dynamo_db_table--><g id="elem_aws_dynamo_db_table"><rect codeLine="22" fill="#3D176E" height="39.7891" id="aws_dynamo_db_table" rx="2.5" ry="2.5" style="stroke:#000D19;stroke-width:0.5;" width="232" x="7" y="7"/><ellipse cx="22" cy="26.8945" fill="#ADD1B2" rx="11" ry="11" style="stroke:#181818;stroke-width:1.0;"/><path d="M24.9688,32.5352 Q24.3906,32.832 23.75,32.9727 Q23.1094,33.1289 22.4063,33.1289 Q19.9063,33.1289 18.5781,31.4883 Q17.2656,29.832 17.2656,26.707 Q17.2656,23.582 18.5781,21.9258 Q19.9063,20.2695 22.4063,20.2695 Q23.1094,20.2695 23.75,20.4258 Q24.4063,20.582 24.9688,20.8789 L24.9688,23.5977 Q24.3438,23.0195 23.75,22.7539 Q23.1563,22.4727 22.5313,22.4727 Q21.1875,22.4727 20.5,23.5508 Q19.8125,24.6133 19.8125,26.707 Q19.8125,28.8008 20.5,29.8789 Q21.1875,30.9414 22.5313,30.9414 Q23.1563,30.9414 23.75,30.6758 Q24.3438,30.3945 24.9688,29.8164 L24.9688,32.5352 Z " fill="#000000"/><text fill="#D9B8FF" font-family="Helvetica" font-size="17" lengthAdjust="spacing" textLength="190" x="41" y="32.7798">aws_dynamo_db_table</text></g><!--class aws_kinesis_stream--><g id="elem_aws_kinesis_stream"><rect codeLine="24" fill="#3D176E" height="39.7891" id="aws_kinesis_stream" rx="2.5" ry="2.5" style="stroke:#000D19;stroke-width:0.5;" width="209" x="137.5" y="106.79"/><ellipse cx="152.5" cy="126.6845" fill="#ADD1B2" rx="11" ry="11" style="stroke:#181818;stroke-width:1.0;"/><path d="M155.4688,132.3252 Q154.8906,132.622 154.25,132.7627 Q153.6094,132.9189 152.9063,132.9189 Q150.4063,132.9189 149.0781,131.2783 Q147.7656,129.622 147.7656,126.497 Q147.7656,123.372 149.0781,121.7158 Q150.4063,120.0595 152.9063,120.0595 Q153.6094,120.0595 154.25,120.2158 Q154.9063,120.372 155.4688,120.6689 L155.4688,123.3877 Q154.8438,122.8095 154.25,122.5439 Q153.6563,122.2627 153.0313,122.2627 Q151.6875,122.2627 151,123.3408 Q150.3125,124.4033 150.3125,126.497 Q150.3125,128.5908 151,129.6689 Q151.6875,130.7314 153.0313,130.7314 Q153.6563,130.7314 154.25,130.4658 Q154.8438,130.1845 155.4688,129.6064 L155.4688,132.3252 Z " fill="#000000"/><text fill="#D9B8FF" font-family="Helvetica" font-size="17" lengthAdjust="spacing" textLength="167" x="171.5" y="132.5698">aws_kinesis_stream</text></g><!--class aws_kms_key--><g id="elem_aws_kms_key"><rect codeLine="26" fill="#3D176E" height="39.7891" id="aws_kms_key" rx="2.5" ry="2.5" style="stroke:#000D19;stroke-width:0.5;" width="158" x="163" y="206.58"/><ellipse cx="178" cy="226.4745" fill="#ADD1B2" rx="11" ry="11" style="stroke:#181818;stroke-width:1.0;"/><path d="M180.9688,232.1152 Q180.3906,232.412 179.75,232.5527 Q179.1094,232.7089 178.4063,232.7089 Q175.9063,232.7089 174.5781,231.0683 Q173.2656,229.412 173.2656,226.287 Q173.2656,223.162 174.5781,221.5058 Q175.9063,219.8495 178.4063,219.8495 Q179.1094,219.8495 179.75,220.0058 Q180.4063,220.162 180.9688,220.4589 L180.9688,223.1777 Q180.3438,222.5995 179.75,222.3339 Q179.1563,222.0527 178.5313,222.0527 Q177.1875,222.0527 176.5,223.1308 Q175.8125,224.1933 175.8125,226.287 Q175.8125,228.3808 176.5,229.4589 Q177.1875,230.5214 178.5313,230.5214 Q179.1563,230.5214 179.75,230.2558 Q180.3438,229.9745 180.9688,229.3964 L180.9688,232.1152 Z " fill="#000000"/><text fill="#D9B8FF" font-family="Helvetica" font-size="17" lengthAdjust="spacing" textLength="116" x="197" y="232.3598">aws_kms_key</text></g><!--class aws_rds_cluster--><g id="elem_aws_rds_cluster"><rect codeLine="28" fill="#3D176E" height="39.7891" id="aws_rds_cluster" rx="2.5" ry="2.5" style="stroke:#000D19;stroke-width:0.5;" width="174" x="293" y="7"/><ellipse cx="308" cy="26.8945" fill="#ADD1B2" rx="11" ry="11" style="stroke:#181818;stroke-width:1.0;"/><path d="M310.9688,32.5352 Q310.3906,32.832 309.75,32.9727 Q309.1094,33.1289 308.4063,33.1289 Q305.9063,33.1289 304.5781,31.4883 Q303.2656,29.832 303.2656,26.707 Q303.2656,23.582 304.5781,21.9258 Q305.9063,20.2695 308.4063,20.2695 Q309.1094,20.2695 309.75,20.4258 Q310.4063,20.582 310.9688,20.8789 L310.9688,23.5977 Q310.3438,23.0195 309.75,22.7539 Q309.1563,22.4727 308.5313,22.4727 Q307.1875,22.4727 306.5,23.5508 Q305.8125,24.6133 305.8125,26.707 Q305.8125,28.8008 306.5,29.8789 Q307.1875,30.9414 308.5313,30.9414 Q309.1563,30.9414 309.75,30.6758 Q310.3438,30.3945 310.9688,29.8164 L310.9688,32.5352 Z " fill="#000000"/><text fill="#D9B8FF" font-family="Helvetica" font-size="17" lengthAdjust="spacing" textLength="132" x="327" y="32.7798">aws_rds_cluster</text></g><!--link aws_dynamo_db_table to aws_kinesis_stream--><g id="link_aws_dynamo_db_table_aws_kinesis_stream"><path codeLine="30" d="M146.51,47.22 C165.91,63.16 193.47,85.81 214.01,102.68 " fill="none" id="aws_dynamo_db_table-to-aws_kinesis_stream" style="stroke:#1A83AF;stroke-width:2.0;"/><polygon fill="#1A83AF" points="217.54,106.41,213.148,97.5946,213.6849,103.226,208.0536,103.7628,217.54,106.41" style="stroke:#1A83AF;stroke-width:2.0;"/></g><!--link aws_dynamo_db_table to aws_kms_key--><g id="link_aws_dynamo_db_table_aws_kms_key"><path codeLine="31" d="M117,46.93 C110.4,71.57 102.86,115.08 120,146.58 C133.96,172.23 160.24,190.81 184.85,203.48 " fill="none" id="aws_dynamo_db_table-to-aws_kms_key" style="stroke:#1A83AF;stroke-width:2.0;"/><polygon fill="#1A83AF" points="189.07,206.09,182.8187,198.4794,184.6007,203.8482,179.2319,205.6302,189.07,206.09" style="stroke:#1A83AF;stroke-width:2.0;"/></g><!--link aws_kinesis_stream to aws_kms_key--><g id="link_aws_kinesis_stream_aws_kms_key"><path codeLine="32" d="M242,147.01 C242,162.28 242,183.71 242,200.32 " fill="none" id="aws_kinesis_stream-to-aws_kms_key" style="stroke:#1A83AF;stroke-width:2.0;"/><polygon fill="#1A83AF" points="242,205.2,246,196.2,242,200.2,238,196.2,242,205.2" style="stroke:#1A83AF;stroke-width:2.0;"/></g><!--link aws_rds_cluster to aws_kinesis_stream--><g id="link_aws_rds_cluster_aws_kinesis_stream"><path codeLine="33" d="M352.74,47.22 C330.05,63.29 297.74,86.19 273.86,103.11 " fill="none" id="aws_rds_cluster-to-aws_kinesis_stream" style="stroke:#1A83AF;stroke-width:2.0;"/><polygon fill="#1A83AF" points="270.21,106.41,279.8657,104.4691,274.2893,103.5187,275.2397,97.9423,270.21,106.41" style="stroke:#1A83AF;stroke-width:2.0;"/></g><!--link aws_rds_cluster to aws_kms_key--><g id="link_aws_rds_cluster_aws_kms_key"><path codeLine="34" d="M382.09,47.22 C383.81,72.18 383.38,116.03 364,146.58 C347.98,171.83 320.63,190.62 295.88,203.51 " fill="none" id="aws_rds_cluster-to-aws_kms_key" style="stroke:#1A83AF;stroke-width:2.0;"/><polygon fill="#1A83AF" points="291.64,206.17,301.4763,205.6725,296.1006,203.9111,297.862,198.5354,291.64,206.17" style="stroke:#1A83AF;stroke-width:2.0;"/></g><!--SRC=[ZP31Ji9048RlFCKcd4ceH86BIIKXUY56l1dJJBjJsD3T9JEBf1hVtTQgMRUbSEXb_g_pVxDR9L6WthjIQDGf4WzufymU2BI8YUnnOGjBOfZda4-cORYqnfq5Lg1Ht6FnXavb41BFMvNj33ABAo-wWsot8Nimibdl20nN4HhdKOi2c6FdIAK7XvwCdAUpF0_9SEbm8gFf3ROmInBf1ncFnpAQXyZPgjwx_uYrUaSH-O-siWvRcgsARwhNiYOyoTQXl_b9nqUGKfcDkFPcJuqJ6QH_y_KMf3tMT0u5-pNiaD2wSe-BrbKudybysWa_d8Ap-kK473cHfG5j4vac3j82nSVWqqkhdSYA4tQ4rUOWrDM7PJ0boKbM76g9xwIhPFGoZEBP95w-ZcuxUYxyfwaVT7ZsihxW9IBzVBFu2m00]--></g></svg>

<svg xmlns="http://www.w3.org/2000/svg" width="474" height="252" preserveAspectRatio="none" style="width:474px;height:252px"><rect width="232" height="39.789" x="7" y="7" fill="#3D176E" rx="2.5" ry="2.5" style="stroke:#000d19;stroke-width:.5"/><circle cx="22" cy="26.895" r="11" fill="#ADD1B2" style="stroke:#181818;stroke-width:1"/><path d="M24.969 32.535q-.578.297-1.219.438-.64.156-1.344.156-2.5 0-3.828-1.64-1.312-1.657-1.312-4.782t1.312-4.781q1.328-1.656 3.828-1.656.703 0 1.344.156.656.156 1.219.453v2.719q-.625-.578-1.219-.844-.594-.281-1.219-.281-1.343 0-2.031 1.078-.688 1.062-.688 3.156 0 2.094.688 3.172.688 1.062 2.031 1.062.625 0 1.219-.265.594-.281 1.219-.86v2.72Z"/><text x="41" y="32.78" fill="#D9B8FF" font-family="Helvetica" font-size="17" textLength="190">aws_dynamo_db_table</text><rect width="209" height="39.789" x="137.5" y="106.79" fill="#3D176E" rx="2.5" ry="2.5" style="stroke:#000d19;stroke-width:.5"/><circle cx="152.5" cy="126.684" r="11" fill="#ADD1B2" style="stroke:#181818;stroke-width:1"/><path d="M155.469 132.325q-.578.297-1.219.438-.64.156-1.344.156-2.5 0-3.828-1.64-1.312-1.657-1.312-4.782t1.312-4.781q1.328-1.656 3.828-1.656.703 0 1.344.156.656.156 1.219.453v2.719q-.625-.579-1.219-.844-.594-.281-1.219-.281-1.344 0-2.031 1.078-.688 1.062-.688 3.156 0 2.094.688 3.172.688 1.062 2.031 1.062.625 0 1.219-.265.594-.281 1.219-.86v2.72Z"/><text x="171.5" y="132.57" fill="#D9B8FF" font-family="Helvetica" font-size="17" textLength="167">aws_kinesis_stream</text><rect width="158" height="39.789" x="163" y="206.58" fill="#3D176E" rx="2.5" ry="2.5" style="stroke:#000d19;stroke-width:.5"/><circle cx="178" cy="226.475" r="11" fill="#ADD1B2" style="stroke:#181818;stroke-width:1"/><path d="M180.969 232.115q-.578.297-1.219.438-.64.156-1.344.156-2.5 0-3.828-1.64-1.312-1.657-1.312-4.782t1.312-4.781q1.328-1.656 3.828-1.656.703 0 1.344.156.656.156 1.219.453v2.719q-.625-.578-1.219-.844-.594-.281-1.219-.281-1.344 0-2.031 1.078-.688 1.062-.688 3.156 0 2.094.688 3.172.688 1.062 2.031 1.062.625 0 1.219-.265.594-.281 1.219-.86v2.72Z"/><text x="197" y="232.36" fill="#D9B8FF" font-family="Helvetica" font-size="17" textLength="116">aws_kms_key</text><rect width="174" height="39.789" x="293" y="7" fill="#3D176E" rx="2.5" ry="2.5" style="stroke:#000d19;stroke-width:.5"/><circle cx="308" cy="26.895" r="11" fill="#ADD1B2" style="stroke:#181818;stroke-width:1"/><path d="M310.969 32.535q-.578.297-1.219.438-.64.156-1.344.156-2.5 0-3.828-1.64-1.312-1.657-1.312-4.782t1.312-4.781q1.328-1.656 3.828-1.656.703 0 1.344.156.656.156 1.219.453v2.719q-.625-.578-1.219-.844-.594-.281-1.219-.281-1.344 0-2.031 1.078-.688 1.062-.688 3.156 0 2.094.688 3.172.688 1.062 2.031 1.062.625 0 1.219-.265.594-.281 1.219-.86v2.72Z"/><text x="327" y="32.78" fill="#D9B8FF" font-family="Helvetica" font-size="17" textLength="132">aws_rds_cluster</text><path fill="none" d="M146.51 47.22c19.4 15.94 46.96 38.59 67.5 55.46" style="stroke:#1a83af;stroke-width:2"/><path fill="#1A83AF" d="m217.54 106.41-4.392-8.815.537 5.631-5.631.537 9.486 2.647z" style="stroke:#1a83af;stroke-width:2"/><path fill="none" d="M117 46.93c-6.6 24.64-14.14 68.15 3 99.65 13.96 25.65 40.24 44.23 64.85 56.9" style="stroke:#1a83af;stroke-width:2"/><path fill="#1A83AF" d="m189.07 206.09-6.251-7.61 1.782 5.368-5.37 1.782 9.839.46z" style="stroke:#1a83af;stroke-width:2"/><path fill="none" d="M242 147.01v53.31" style="stroke:#1a83af;stroke-width:2"/><path fill="#1A83AF" d="m242 205.2 4-9-4 4-4-4 4 9z" style="stroke:#1a83af;stroke-width:2"/><path fill="none" d="M352.74 47.22c-22.69 16.07-55 38.97-78.88 55.89" style="stroke:#1a83af;stroke-width:2"/><path fill="#1A83AF" d="m270.21 106.41 9.656-1.94-5.577-.951.95-5.577-5.029 8.468z" style="stroke:#1a83af;stroke-width:2"/><path fill="none" d="M382.09 47.22c1.72 24.96 1.29 68.81-18.09 99.36-16.02 25.25-43.37 44.04-68.12 56.93" style="stroke:#1a83af;stroke-width:2"/><path fill="#1A83AF" d="m291.64 206.17 9.836-.497-5.375-1.762 1.761-5.376-6.222 7.635z" style="stroke:#1a83af;stroke-width:2"/></svg>
